X:380
T: Saint Andrew's
S: "Music from Ireland 3" (Bulmer & Sharpley)
Z: B.Black
R: reel
M: 4/4
L: 1/8
K: F
c3d cFAF|DGGF G2 FD|CFAF cFAF|G2 FG AF F2 :|
Ac c2 dcAc|dgga gfde|fefd c2 Ac|fefg af f2 :|
